X: 1
T: The Chandelier
R: reel
M: 4/4
L: 1/8
K: Dmaj
|:D2 (3DDD ADFG|A2FA dfed|Bg~g2 gfed|c/B/A ed cAGE|
D2 (3DDD ADFG|A2FA dfed|cAAB cAed|1cAGE ~F3E:|2cAGE FABc||
|:dfbf afeg|~f3d eABc|dfbf afeg|fedB cdeg|
~f3e de f/e/d|eAAA ABcA|B2GF GBdB|1AFEG FABc:|2AFEG F3E||


Tune 1479	Setting 14869

